Dominus_Dark_Funeral/22/apps/gimp.svg

<svg xmlns="http://www.w3.org/2000/svg" width="24" height="24" viewBox="0 0 6.35 6.35"><defs><linearGradient id="b"><stop offset="0" stop-color="#334545"/><stop offset="1" stop-color="#172525"/></linearGradient><linearGradient id="a"><stop offset="0"/><stop offset="1" stop-opacity="0"/></linearGradient><linearGradient id="c"><stop offset="0" stop-color="#6c5548"/><stop offset="1" stop-color="#bb9d71"/></linearGradient></defs><path d="M5.98.97c-.04 0-.08.02-.1.05a.32.32 0 0 0-.06.1c-.03.09-.12.38-.46.66-.34.3-.92.72-1.93.75-.61 0-1.03-.31-1.28-.8C2.1 1.61 2 1.4 2 1.53V2.9l.01.2c-.05.16.08.3-.26.56.08.46-.23.65-.28.65a3.89 3.89 0 0 0 2.48 1.07 1.9 1.9 0 0 0 1.7-.84c.42-.63.62-1.83.45-3.39a.32.32 0 0 0-.03-.1C6.06 1 6.03.97 5.98.96zM2.74 2.55a.7.7 0 0 1 .45.16l.09.1a.58.58 0 0 1 .09-.1c.12-.1.28-.16.45-.16a.7.7 0 0 1 .45.16.61.61 0 0 1 .2.48.61.61 0 0 1-.2.47.7.7 0 0 1-.45.16.7.7 0 0 1-.45-.16.58.58 0 0 1-.1-.09.58.58 0 0 1-.08.1.7.7 0 0 1-.45.15.7.7 0 0 1-.45-.16.61.61 0 0 1-.21-.47c0-.21.08-.37.2-.48a.7.7 0 0 1 .46-.16zm-1.97.14a.56.56 0 0 0-.34.1c-.28.2-.36.66-.01 1.14.35.47.8.55 1.08.35.29-.2.36-.66.01-1.13-.22-.32-.5-.45-.74-.46zm1.95.23A.33.33 0 0 0 2.5 3a.32.32 0 0 0-.1.24.32.32 0 0 0 .1.24.33.33 0 0 0 .22.08.33.33 0 0 0 .23-.08.32.32 0 0 0 .1-.24.32.32 0 0 0-.1-.24.33.33 0 0 0-.23-.08zm1.17 0a.33.33 0 0 0-.22.08.32.32 0 0 0-.1.24.32.32 0 0 0 .1.24.33.33 0 0 0 .22.08.33.33 0 0 0 .22-.08.32.32 0 0 0 .1-.24.32.32 0 0 0-.1-.24.33.33 0 0 0-.22-.08zm.59 1.16s.21.1.32.24c.12.14-.03.23-.06.41l-.13-.28a.73.73 0 0 1-.6.28c-.29.01-.66-.1-1.1-.26.29 0 .54.02.77 0 .38-.02.72-.06.89-.2a.52.52 0 0 1-.1-.19z" fill="#e6e6e6"/></svg>

<?xml version="1.0" encoding="UTF-8" standalone="no"?>
<svg
   xmlns:dc="http://purl.org/dc/elements/1.1/"
   xmlns:cc="http://creativecommons.org/ns#"
   xmlns:rdf="http://www.w3.org/1999/02/22-rdf-syntax-ns#"
   xmlns:svg="http://www.w3.org/2000/svg"
   xmlns="http://www.w3.org/2000/svg"
   xmlns:sodipodi="http://sodipodi.sourceforge.net/DTD/sodipodi-0.dtd"
   xmlns:inkscape="http://www.inkscape.org/namespaces/inkscape"
   width="24"
   height="24"
   viewBox="0 0 6.35 6.35"
   version="1.1"
   id="svg21"
   sodipodi:docname="gimp.svg"
   inkscape:version="0.92.4 (5da689c313, 2019-01-14)">
  <metadata
     id="metadata25">
    <rdf:RDF>
      <cc:Work
         rdf:about="">
        <dc:format>image/svg+xml</dc:format>
        <dc:type
           rdf:resource="http://purl.org/dc/dcmitype/StillImage" />
        <dc:title></dc:title>
      </cc:Work>
    </rdf:RDF>
  </metadata>
  <sodipodi:namedview
     pagecolor="#ffffff"
     bordercolor="#666666"
     borderopacity="1"
     objecttolerance="10"
     gridtolerance="10"
     guidetolerance="10"
     inkscape:pageopacity="0"
     inkscape:pageshadow="2"
     inkscape:window-width="1138"
     inkscape:window-height="480"
     id="namedview23"
     showgrid="false"
     inkscape:zoom="9.8333333"
     inkscape:cx="1.0677966"
     inkscape:cy="12"
     inkscape:window-x="0"
     inkscape:window-y="25"
     inkscape:window-maximized="0"
     inkscape:current-layer="svg21" />
  <defs
     id="defs17">
    <linearGradient
       id="b">
      <stop
         offset="0"
         stop-color="#334545"
         id="stop2" />
      <stop
         offset="1"
         stop-color="#172525"
         id="stop4" />
    </linearGradient>
    <linearGradient
       id="a">
      <stop
         offset="0"
         id="stop7" />
      <stop
         offset="1"
         stop-opacity="0"
         id="stop9" />
    </linearGradient>
    <linearGradient
       id="c">
      <stop
         offset="0"
         stop-color="#6c5548"
         id="stop12" />
      <stop
         offset="1"
         stop-color="#bb9d71"
         id="stop14" />
    </linearGradient>
  </defs>
  <path
     d="M 5.98,0.97 C 5.94,0.97 5.9,0.99 5.88,1.02 A 0.32,0.32 0 0 0 5.82,1.12 C 5.79,1.21 5.7,1.5 5.36,1.78 5.02,2.08 4.44,2.5 3.43,2.53 2.82,2.53 2.4,2.22 2.15,1.73 2.1,1.61 2,1.4 2,1.53 V 2.9 L 2.01,3.1 C 1.96,3.26 2.09,3.4 1.75,3.66 1.83,4.12 1.52,4.31 1.47,4.31 A 3.89,3.89 0 0 0 3.95,5.38 1.9,1.9 0 0 0 5.65,4.54 C 6.07,3.91 6.27,2.71 6.1,1.15 A 0.32,0.32 0 0 0 6.07,1.05 C 6.06,1 6.03,0.97 5.98,0.96 Z M 2.74,2.55 a 0.7,0.7 0 0 1 0.45,0.16 l 0.09,0.1 A 0.58,0.58 0 0 1 3.37,2.71 C 3.49,2.61 3.65,2.55 3.82,2.55 A 0.7,0.7 0 0 1 4.27,2.71 0.61,0.61 0 0 1 4.47,3.19 0.61,0.61 0 0 1 4.27,3.66 0.7,0.7 0 0 1 3.82,3.82 0.7,0.7 0 0 1 3.37,3.66 0.58,0.58 0 0 1 3.27,3.57 0.58,0.58 0 0 1 3.19,3.67 0.7,0.7 0 0 1 2.74,3.82 0.7,0.7 0 0 1 2.29,3.66 0.61,0.61 0 0 1 2.08,3.19 c 0,-0.21 0.08,-0.37 0.2,-0.48 A 0.7,0.7 0 0 1 2.74,2.55 Z M 0.77,2.69 A 0.56,0.56 0 0 0 0.43,2.79 C 0.15,2.99 0.07,3.45 0.42,3.93 0.77,4.4 1.22,4.48 1.5,4.28 1.79,4.08 1.86,3.62 1.51,3.15 1.29,2.83 1.01,2.7 0.77,2.69 Z M 2.72,2.92 A 0.33,0.33 0 0 0 2.5,3 0.32,0.32 0 0 0 2.4,3.24 0.32,0.32 0 0 0 2.5,3.48 0.33,0.33 0 0 0 2.72,3.56 0.33,0.33 0 0 0 2.95,3.48 0.32,0.32 0 0 0 3.05,3.24 0.32,0.32 0 0 0 2.95,3 0.33,0.33 0 0 0 2.72,2.92 Z m 1.17,0 A 0.33,0.33 0 0 0 3.67,3 0.32,0.32 0 0 0 3.57,3.24 0.32,0.32 0 0 0 3.67,3.48 0.33,0.33 0 0 0 3.89,3.56 0.33,0.33 0 0 0 4.11,3.48 0.32,0.32 0 0 0 4.21,3.24 0.32,0.32 0 0 0 4.11,3 0.33,0.33 0 0 0 3.89,2.92 Z m 0.59,1.16 c 0,0 0.21,0.1 0.32,0.24 C 4.92,4.46 4.77,4.55 4.74,4.73 L 4.61,4.45 A 0.73,0.73 0 0 1 4.01,4.73 C 3.72,4.74 3.35,4.63 2.91,4.47 c 0.29,0 0.54,0.02 0.77,0 C 4.06,4.45 4.4,4.41 4.57,4.27 A 0.52,0.52 0 0 1 4.47,4.08 Z"
     id="path19"
     inkscape:connector-curvature="0"
     style="fill:#e6e6e6" />
</svg>
